Printex-remake/img/icons/catalog/02.svg

<svg width="107" height="98" viewBox="0 0 107 98" fill="none" xmlns="http://www.w3.org/2000/svg">
<g clip-path="url(#clip0)">
<path d="M86.9238 54.5548L103.418 57.4764L43.173 92.2564L26.6786 89.3348L86.9238 54.5548Z" fill="#E6E6E6"/>
<path d="M18.1954 68.6927L18.1954 69.6352L18.6667 70.1065L21.4943 79.0607L16.222 77.905L4.99991 76.139L18.1954 68.6927Z" fill="#E6E6E6"/>
<path d="M74.0805 5.51489L12.998 40.7835L5.94238 75.7426L18.157 68.6928" stroke="black" stroke-linecap="round" stroke-linejoin="bevel"/>
<path d="M27.5825 89.4285L23.7049 88.2918L17.2147 64.9225L11.9248 46.4075" stroke="black" stroke-linecap="round" stroke-linejoin="bevel"/>
<path d="M16.7451 39.4241L73.6977 6.54006L86.8504 52.5751L29.8978 85.4591L16.7451 39.4241Z" fill="#F2F2F2"/>
<path d="M13.4941 40.4747L74.5767 5.20605L88.6831 54.5794L27.6006 89.848L13.4941 40.4747Z" stroke="black" stroke-linejoin="bevel"/>
<path d="M25.1409 40.5782C25.4823 41.9406 24.941 43.8369 23.9319 44.8137C22.9228 45.7906 21.828 45.4781 21.4867 44.1157C21.1453 42.7534 21.6867 40.8571 22.6957 39.8802C23.7048 38.9034 24.7996 39.2159 25.1409 40.5782Z" fill="#E6E6E6"/>
<path d="M33.0853 36.2389C33.4266 37.6012 32.8853 39.4975 31.8762 40.4744C30.8671 41.4512 29.7724 41.1387 29.431 39.7764C29.0897 38.414 29.631 36.5177 30.6401 35.5409C31.6492 34.564 32.7439 34.8765 33.0853 36.2389Z" fill="#E6E6E6"/>
<path d="M40.8421 31.891C41.1835 33.2533 40.6421 35.1496 39.6331 36.1265C38.624 37.1033 37.5292 36.7908 37.1879 35.4285C36.8465 34.0661 37.3878 32.1698 38.3969 31.193C39.406 30.2161 40.5008 30.5286 40.8421 31.891Z" fill="#E6E6E6"/>
<path d="M48.598 27.5431C48.9393 28.9054 48.398 30.8017 47.3889 31.7786C46.3798 32.7554 45.2851 32.4429 44.9437 31.0806C44.6024 29.7182 45.1437 27.8219 46.1528 26.8451C47.1619 25.8682 48.2566 26.1807 48.598 27.5431Z" fill="#E6E6E6"/>
<path d="M56.3538 23.1949C56.6952 24.5573 56.1539 26.4536 55.1448 27.4304C54.1357 28.4073 53.0409 28.0948 52.6996 26.7324C52.3582 25.3701 52.8995 23.4738 53.9086 22.4969C54.9177 21.5201 56.0125 21.8326 56.3538 23.1949Z" fill="#E6E6E6"/>
<path d="M64.1107 18.8468C64.452 20.2091 63.9107 22.1054 62.9016 23.0823C61.8925 24.0592 60.7978 23.7467 60.4564 22.3843C60.1151 21.0219 60.6564 19.1256 61.6655 18.1488C62.6746 17.1719 63.7693 17.4844 64.1107 18.8468Z" fill="#E6E6E6"/>
<path d="M71.8509 14.829C72.1923 16.1913 71.6509 18.0876 70.6418 19.0645C69.6327 20.0413 68.538 19.7288 68.1966 18.3665C67.8553 17.0041 68.3966 15.1078 69.4057 14.131C70.4148 13.1541 71.5096 13.4666 71.8509 14.829Z" fill="#E6E6E6"/>
<path d="M17.4249 38.7271C16.7286 37.3478 16.3106 35.8549 16.3105 34.4906C16.3104 31.3647 18.5049 30.0977 21.212 31.6607C23.9192 33.2238 26.1138 37.025 26.1139 40.151C26.114 42.5887 24.7795 43.8959 22.9081 43.6121" stroke="black"/>
<path d="M24.9649 34.0145C24.2687 32.6351 23.8506 31.1423 23.8506 29.778C23.8505 26.652 26.045 25.385 28.7521 26.9481C31.4592 28.5112 33.6538 32.3124 33.6539 35.4384C33.654 37.876 32.3195 39.1832 30.4481 38.8995" stroke="black"/>
<path d="M32.5059 29.3016C31.8097 27.9223 31.3916 26.4294 31.3916 25.0651C31.3915 21.9391 33.586 20.6721 36.2931 22.2352C39.0002 23.7983 41.1948 27.5995 41.1949 30.7255C41.195 33.1631 39.8606 34.4703 37.9891 34.1866" stroke="black"/>
<path d="M40.0459 24.5889C39.3497 23.2096 38.9317 21.7167 38.9316 20.3524C38.9315 17.2265 41.126 15.9595 43.8331 17.5226C46.5403 19.0856 48.7349 22.8869 48.735 26.0128C48.7351 28.4505 47.4006 29.7577 45.5292 29.4739" stroke="black"/>
<path d="M48.5284 20.8189C47.8322 19.4396 47.4141 17.9467 47.4141 16.5824C47.414 13.4565 49.6084 12.1895 52.3156 13.7525C55.0227 15.3156 57.2173 19.1168 57.2174 22.2428C57.2175 24.6805 55.883 25.9877 54.0116 25.7039" stroke="black"/>
<path d="M56.0694 16.106C55.3732 14.7267 54.9551 13.2338 54.9551 11.8695C54.955 8.74356 57.1495 7.47658 59.8566 9.03965C62.5637 10.6027 64.7583 14.4039 64.7584 17.5299C64.7585 19.9676 63.424 21.2748 61.5526 20.991" stroke="black"/>
<path d="M63.6094 11.3934C62.9132 10.0141 62.4952 8.52116 62.4951 7.15688C62.495 4.03092 64.6895 2.76394 67.3966 4.32701C70.1037 5.89008 72.2984 9.69129 72.2985 12.8173C72.2985 15.2549 70.9641 16.5621 69.0927 16.2784" stroke="black"/>
<path d="M26.9239 56.9782L25.3635 51.4301L30.0141 48.7449L31.5745 54.293L26.9239 56.9782Z" stroke="black"/>
<path d="M35.4073 52.2655L33.8469 46.7174L38.4975 44.0322L40.0579 49.5803L35.4073 52.2655Z" stroke="black"/>
<path d="M43.8897 47.5529L42.3294 42.0048L46.9799 39.3196L48.5403 44.8677L43.8897 47.5529Z" stroke="black"/>
<path d="M52.3731 42.84L50.8128 37.2919L55.4633 34.6067L57.0237 40.1548L52.3731 42.84Z" stroke="black"/>
<path d="M60.8556 38.1274L59.2952 32.5792L63.9457 29.8941L65.5061 35.4422L60.8556 38.1274Z" stroke="black"/>
<path d="M69.339 33.4147L67.7786 27.8666L72.4291 25.1814L73.9895 30.7295L69.339 33.4147Z" stroke="black"/>
<path d="M27.6211 60.6848L33.1708 57.4804L34.9731 63.8888L29.4234 67.0932L27.6211 60.6848Z" fill="white"/>
<path d="M36.1045 55.9722L41.6542 52.7678L43.4565 59.1762L37.9068 62.3806L36.1045 55.9722Z" fill="white"/>
<path d="M44.5869 51.2595L50.1366 48.0551L51.939 54.4635L46.3892 57.6679L44.5869 51.2595Z" fill="white"/>
<path d="M53.0703 46.5469L58.62 43.3425L60.4224 49.7509L54.8726 52.9553L53.0703 46.5469Z" fill="white"/>
<path d="M61.5527 41.8342L67.1025 38.6299L68.9048 45.0382L63.3551 48.2426L61.5527 41.8342Z" fill="white"/>
<path d="M70.0361 37.1213L75.5859 33.917L77.3882 40.3254L71.8385 43.5297L70.0361 37.1213Z" fill="white"/>
</g>
<defs>
<clipPath id="clip0">
<rect width="107" height="98" fill="white"/>
</clipPath>
</defs>
</svg>

<svg width="107" height="98" fill="none" xmlns="http://www.w3.org/2000/svg"><g clip-path="url(#clip0)"><path d="M86.924 54.555l16.494 2.921-60.245 34.78-16.494-2.921 60.245-34.78zM18.195 68.693v.942l.472.471 2.827 8.955-5.272-1.156L5 76.139l13.195-7.446z" fill="#E6E6E6"/><path d="M74.08 5.515L12.998 40.783l-7.056 34.96 12.215-7.05" stroke="#000" stroke-linecap="round" stroke-linejoin="bevel"/><path d="M27.582 89.428l-3.877-1.136-6.49-23.37-5.29-18.514" stroke="#000" stroke-linecap="round" stroke-linejoin="bevel"/><path d="M16.745 39.424L73.698 6.54 86.85 52.575 29.898 85.46 16.745 39.424z" fill="#F2F2F2"/><path d="M13.494 40.475L74.577 5.206l14.106 49.373-61.082 35.269-14.107-49.373z" stroke="#000" stroke-linejoin="bevel"/><path d="M25.14 40.578c.342 1.363-.199 3.259-1.208 4.236-1.01.977-2.104.664-2.445-.698-.342-1.363.2-3.259 1.209-4.236 1.009-.977 2.104-.664 2.445.698zm7.945-4.339c.342 1.362-.2 3.259-1.209 4.235-1.009.977-2.104.665-2.445-.698-.341-1.362.2-3.258 1.21-4.235 1.008-.977 2.103-.664 2.444.698zm7.757-4.348c.342 1.362-.2 3.259-1.209 4.236-1.009.976-2.104.664-2.445-.699-.342-1.362.2-3.258 1.209-4.235 1.009-.977 2.104-.664 2.445.698zm7.756-4.348c.341 1.362-.2 3.259-1.21 4.236-1.008.976-2.103.664-2.444-.698-.342-1.363.2-3.26 1.209-4.236 1.009-.977 2.104-.664 2.445.698zm7.756-4.348c.341 1.362-.2 3.259-1.21 4.235-1.008.977-2.103.665-2.444-.698-.342-1.362.2-3.258 1.209-4.235 1.009-.977 2.104-.664 2.445.698zm7.756-4.348c.342 1.362-.2 3.258-1.208 4.235-1.01.977-2.104.665-2.446-.698-.34-1.362.2-3.258 1.21-4.235 1.009-.977 2.103-.665 2.445.698zm7.74-4.018c.342 1.362-.2 3.259-1.208 4.235-1.01.977-2.104.665-2.445-.698-.342-1.362.2-3.258 1.209-4.235 1.009-.977 2.104-.664 2.445.698z" fill="#E6E6E6"/><path d="M17.425 38.727c-.696-1.38-1.114-2.872-1.114-4.236 0-3.126 2.194-4.393 4.901-2.83 2.707 1.563 4.902 5.364 4.902 8.49 0 2.438-1.335 3.745-3.206 3.461m2.057-9.598c-.696-1.379-1.114-2.872-1.114-4.236 0-3.126 2.194-4.393 4.901-2.83 2.707 1.563 4.902 5.364 4.902 8.49 0 2.438-1.335 3.745-3.206 3.462m2.058-9.598c-.696-1.38-1.114-2.873-1.114-4.237 0-3.126 2.194-4.393 4.901-2.83 2.707 1.563 4.902 5.364 4.902 8.49 0 2.438-1.334 3.745-3.206 3.462m2.057-9.598c-.696-1.38-1.114-2.872-1.114-4.237 0-3.125 2.194-4.393 4.901-2.83 2.707 1.564 4.902 5.365 4.902 8.49 0 2.439-1.334 3.746-3.206 3.462m2.999-8.655c-.696-1.38-1.114-2.872-1.114-4.237 0-3.126 2.194-4.393 4.902-2.83 2.707 1.564 4.901 5.365 4.901 8.49 0 2.438-1.334 3.746-3.205 3.462m2.058-9.598c-.697-1.38-1.115-2.872-1.115-4.237 0-3.125 2.195-4.392 4.902-2.83 2.707 1.564 4.901 5.365 4.901 8.49 0 2.439-1.334 3.746-3.205 3.462m2.057-9.598c-.697-1.379-1.115-2.872-1.115-4.236 0-3.126 2.194-4.393 4.902-2.83 2.707 1.563 4.901 5.364 4.901 8.49 0 2.438-1.334 3.745-3.205 3.461m-42.169 40.7l-1.56-5.548 4.65-2.685 1.56 5.548-4.65 2.685zm8.483-4.712l-1.56-5.549 4.65-2.685 1.56 5.548-4.65 2.686zm8.483-4.713l-1.56-5.548 4.65-2.685 1.56 5.548-4.65 2.685zm8.483-4.713l-1.56-5.548 4.65-2.685 1.56 5.548-4.65 2.685zm8.483-4.713l-1.56-5.548 4.65-2.685 1.56 5.548-4.65 2.685zm8.483-4.712l-1.56-5.548 4.65-2.686 1.56 5.549-4.65 2.685z" stroke="#000"/><path d="M27.621 60.685l5.55-3.205 1.802 6.409-5.55 3.204-1.802-6.408zm8.484-4.713l5.55-3.204 1.801 6.408-5.55 3.205-1.801-6.409zm8.482-4.712l5.55-3.205 1.802 6.409-5.55 3.204-1.802-6.408zm8.483-4.713l5.55-3.204 1.802 6.408-5.55 3.204-1.802-6.408zm8.483-4.713l5.55-3.204 1.802 6.408-5.55 3.205-1.802-6.409zm8.483-4.713l5.55-3.204 1.802 6.408-5.55 3.205-1.802-6.409z" fill="#fff"/></g><defs><clipPath id="clip0"><path fill="#fff" d="M0 0h107v98H0z"/></clipPath></defs></svg>
